src/icons/reset-icon.svg

<svg width="12" height="12" viewBox="0 0 12 12" fill="none" xmlns="http://www.w3.org/2000/svg">
<path d="M4.66732 7.3335C4.66732 7.3335 5.35516 7.31792 6.63738 7.3335C9.75399 7.18011 11.0231 10.1184 11.334 10.6668C11.334 9.82497 11.334 7.3335 9.75399 5.3335C8.174 3.3335 4.66732 3.3335 4.66732 3.3335V1.3335L0.667318 5.3335L4.66732 9.3335V7.3335Z" stroke="#0278D5" stroke-linecap="round" stroke-linejoin="round"/>
</svg>

<svg width="12" height="12" fill="none" xmlns="http://www.w3.org/2000/svg"><path d="M4.667 7.333s.688-.015 1.97 0c3.117-.153 4.386 2.785 4.697 3.334 0-.842 0-3.333-1.58-5.333s-5.087-2-5.087-2v-2l-4 4 4 4v-2z" stroke="#0278D5" stroke-linecap="round" stroke-linejoin="round"/></svg>
